flaticon/coffee-shop/coffee-cup-4.svg

<svg xmlns="http://www.w3.org/2000/svg" width="32" height="32" viewBox="0 0 24 24">
    <path d="M 23.601562 5.601562 L 23.011719 5.601562 L 21.519531 3.359375 C 21.441406 3.28125 21.320312 3.199219 21.199219 3.199219 L 14.800781 3.199219 C 14.679688 3.199219 14.558594 3.28125 14.480469 3.398438 L 13.535156 4.800781 L 10.492188 4.800781 L 9.519531 3.359375 C 9.441406 3.28125 9.320312 3.199219 9.199219 3.199219 L 2.800781 3.199219 C 2.679688 3.199219 2.558594 3.28125 2.441406 3.398438 L 0.972656 5.601562 L 0.398438 5.601562 C 0.160156 5.601562 0 5.761719 0 6 L 0 7.601562 C 0 7.839844 0.160156 8 0.398438 8 L 0.878906 8 L 1.199219 10.59375 C 1.160156 10.621094 1.117188 10.648438 1.078125 10.679688 C 0.921875 10.878906 0.800781 11.160156 0.839844 11.398438 L 1.160156 14.761719 C 1.195312 15.171875 1.496094 15.496094 1.882812 15.578125 L 2.320312 18.640625 C 2.398438 19.199219 2.878906 19.601562 3.441406 19.601562 L 8.285156 19.601562 L 8.320312 19.839844 C 8.398438 20.398438 8.878906 20.800781 9.441406 20.800781 L 14.558594 20.800781 C 15.121094 20.800781 15.601562 20.398438 15.71875 19.839844 L 15.753906 19.601562 L 20.558594 19.601562 C 21.121094 19.601562 21.601562 19.199219 21.761719 18.558594 L 22.1875 15.558594 C 22.539062 15.453125 22.800781 15.140625 22.800781 14.71875 L 23.121094 11.359375 C 23.160156 11.078125 23.039062 10.839844 22.878906 10.640625 C 22.878906 10.636719 22.875 10.632812 22.871094 10.632812 L 23.195312 8 L 23.601562 8 C 23.839844 8 24 7.839844 24 7.601562 L 24 6 C 24 5.761719 23.839844 5.601562 23.601562 5.601562 Z M 13.761719 5.601562 L 15 5.601562 L 15.398438 6.238281 L 16.046875 7.199219 L 7.964844 7.199219 L 8.589844 6.273438 C 8.609375 6.261719 8.625 6.25 8.640625 6.238281 L 9.039062 5.601562 Z M 8.121094 16 C 8.039062 16 8 15.960938 8 15.878906 L 7.921875 15.160156 C 7.910156 15.117188 7.898438 15.078125 7.878906 15.042969 L 7.640625 12.519531 C 7.640625 12.480469 7.679688 12.441406 7.679688 12.441406 C 7.710938 12.429688 7.734375 12.414062 7.761719 12.398438 L 16.238281 12.398438 C 16.28125 12.398438 16.320312 12.441406 16.320312 12.441406 C 16.332031 12.441406 16.339844 12.445312 16.347656 12.449219 C 16.355469 12.46875 16.359375 12.492188 16.359375 12.519531 L 16.039062 15.878906 C 16.039062 15.90625 16.035156 15.929688 16.027344 15.945312 C 16.007812 15.953125 15.988281 15.960938 15.960938 15.960938 L 15.800781 15.960938 C 15.738281 15.960938 15.683594 15.972656 15.632812 16 Z M 16.226562 10.554688 C 16.195312 10.605469 16.171875 10.660156 16.160156 10.71875 L 16.050781 11.558594 L 7.953125 11.558594 L 7.679688 9.601562 L 16.359375 9.601562 Z M 16.839844 8.800781 L 6.800781 8.800781 L 6.800781 8 L 17.199219 8 L 17.199219 8.800781 Z M 23.199219 7.199219 L 17.011719 7.199219 L 16.480469 6.398438 L 23.199219 6.398438 Z M 15 4 L 21 4 L 22.078125 5.601562 L 15.960938 5.601562 L 15.519531 4.960938 C 15.441406 4.878906 15.320312 4.800781 15.199219 4.800781 L 14.480469 4.800781 Z M 3 4 L 9 4 L 9.519531 4.800781 L 8.800781 4.800781 C 8.679688 4.800781 8.558594 4.878906 8.480469 4.960938 L 8.476562 4.964844 C 8.464844 4.976562 8.453125 4.988281 8.441406 5 L 8.039062 5.601562 L 1.960938 5.601562 Z M 0.800781 6.398438 L 7.507812 6.398438 L 6.972656 7.199219 L 0.800781 7.199219 Z M 6 8 L 6 9.199219 C 6 9.441406 6.160156 9.601562 6.398438 9.601562 L 6.839844 9.601562 L 6.921875 10.152344 L 6.957031 10.398438 L 1.960938 10.398438 L 1.640625 8 Z M 1.679688 11.238281 C 1.679688 11.238281 1.71875 11.199219 1.761719 11.199219 L 7.070312 11.199219 L 7.15625 11.800781 C 7.140625 11.8125 7.125 11.828125 7.113281 11.84375 C 6.929688 12.015625 6.828125 12.238281 6.832031 12.492188 C 6.832031 12.527344 6.835938 12.566406 6.839844 12.601562 L 7.039062 14.800781 L 2.078125 14.800781 C 2 14.800781 1.960938 14.761719 1.960938 14.679688 L 1.640625 11.320312 C 1.640625 11.28125 1.679688 11.238281 1.679688 11.238281 Z M 3.441406 18.800781 C 3.28125 18.800781 3.121094 18.679688 3.078125 18.519531 L 2.679688 15.601562 L 7.121094 15.601562 L 7.160156 15.960938 C 7.195312 16.371094 7.496094 16.695312 7.882812 16.777344 L 8.160156 18.800781 Z M 14.558594 20 L 9.398438 20 C 9.238281 20 9.121094 19.878906 9.078125 19.71875 L 9.039062 19.414062 C 9.078125 19.328125 9.078125 19.257812 9.078125 19.160156 L 8.742188 16.800781 L 15.28125 16.800781 L 14.878906 19.71875 C 14.839844 19.878906 14.71875 20 14.558594 20 Z M 20.878906 18.519531 C 20.839844 18.679688 20.71875 18.800781 20.558594 18.800781 L 15.867188 18.800781 L 16.160156 16.769531 C 16.335938 16.722656 16.496094 16.621094 16.609375 16.488281 C 16.738281 16.347656 16.820312 16.164062 16.839844 15.960938 L 16.878906 15.601562 L 21.28125 15.601562 Z M 22.039062 14.679688 C 22.039062 14.730469 22.023438 14.765625 21.992188 14.78125 C 21.945312 14.769531 21.890625 14.761719 21.839844 14.761719 L 16.964844 14.761719 L 17.160156 12.601562 C 17.199219 12.328125 17.085938 12.058594 16.863281 11.859375 C 16.855469 11.851562 16.847656 11.84375 16.839844 11.835938 L 16.890625 11.449219 L 16.925781 11.199219 L 22.238281 11.199219 C 22.28125 11.199219 22.28125 11.238281 22.320312 11.238281 C 22.359375 11.238281 22.359375 11.28125 22.359375 11.320312 Z M 22.046875 10.359375 L 17.046875 10.359375 L 17.160156 9.601562 L 17.601562 9.601562 C 17.839844 9.601562 18 9.441406 18 9.199219 L 18 8 L 22.359375 8 Z M 22.046875 10.359375"/>
</svg>

<svg xmlns="http://www.w3.org/2000/svg" width="32" height="32" viewBox="0 0 24 24">
    <path d="M23.602 5.602h-.59L21.52 3.359c-.079-.078-.2-.16-.32-.16h-6.4c-.12 0-.241.082-.32.2L13.535 4.8h-3.043L9.52 3.359c-.079-.078-.2-.16-.32-.16H2.8c-.12 0-.241.082-.359.2L.973 5.601H.398C.16 5.602 0 5.762 0 6v1.602C0 7.84.16 8 .398 8h.48l.321 2.594c-.039.027-.082.054-.12.086-.157.199-.278.48-.24.718l.321 3.364c.035.41.336.734.723.816l.437 3.063c.078.558.559.96 1.121.96h4.844l.035.239c.078.558.559.96 1.121.96h5.118c.562 0 1.043-.402 1.16-.96l.035-.238h4.805c.562 0 1.043-.403 1.203-1.043l.425-3a.854.854 0 0 0 .614-.84l.32-3.36c.04-.28-.082-.52-.242-.718a.008.008 0 0 0-.008-.008L23.195 8h.407c.238 0 .398-.16.398-.398V6c0-.238-.16-.398-.398-.398zm-9.84 0H15l.398.636.649.961H7.965l.625-.926c.02-.011.035-.023.05-.035l.4-.636zM8.122 16C8.038 16 8 15.96 8 15.879l-.078-.719a.52.52 0 0 0-.043-.117L7.64 12.52c0-.04.039-.079.039-.079.03-.011.054-.027.082-.043h8.476c.043 0 .082.043.082.043.012 0 .02.004.028.008a.19.19 0 0 1 .011.07l-.32 3.36c0 .027-.004.05-.012.066-.02.008-.039.016-.066.016h-.16a.344.344 0 0 0-.168.039zm8.105-5.445a.5.5 0 0 0-.067.164l-.11.84H7.954L7.68 9.602h8.68zM16.84 8.8H6.8V8h10.4v.8zm6.36-1.602h-6.188l-.532-.8h6.72zM15 4h6l1.078 1.602h-6.117l-.441-.641c-.079-.082-.2-.16-.32-.16h-.72zM3 4h6l.52.8H8.8c-.12 0-.241.079-.32.16l-.003.005L8.44 5l-.402.602H1.961zM.8 6.398h6.708l-.535.801H.8zM6 8v1.2c0 .241.16.402.398.402h.442l.082.55.035.246H1.961L1.64 8zm-4.32 3.238s.039-.039.082-.039H7.07l.086.602a.224.224 0 0 0-.043.043.852.852 0 0 0-.273.758l.2 2.199H2.077c-.078 0-.117-.04-.117-.121l-.32-3.36c0-.039.039-.082.039-.082zm1.761 7.563a.392.392 0 0 1-.363-.281l-.398-2.918H7.12l.04.359c.034.41.335.734.722.816l.277 2.024zM14.56 20h-5.16c-.16 0-.278-.121-.32-.281l-.04-.305a.552.552 0 0 0 .04-.254l-.337-2.36h6.54l-.403 2.919c-.04.16-.16.281-.32.281zm6.32-1.48c-.04.16-.16.28-.32.28h-4.692l.293-2.03a.903.903 0 0 0 .45-.282.905.905 0 0 0 .23-.527l.039-.36h4.402zm1.16-3.84c0 .05-.016.086-.047.101a.651.651 0 0 0-.152-.02h-4.875l.195-2.16c.04-.273-.074-.542-.297-.742l-.023-.023.05-.387.036-.25h5.312c.043 0 .043.04.082.04.04 0 .04.042.04.081zm.008-4.32h-5l.113-.758h.442c.238 0 .398-.16.398-.403V8h4.36zm0 0"/>
</svg>
